!!!SOCIAL_FUNCTION:	cheyenne war song
!!!PDT:	1936
!!!OTL: No_12_Song_in_Honor_of_a_Successful_Warrior.krn
!!!REG: Oklahoma and Montana
!!!LANG: Tone
!!!LING_GROUP: Algonquin
**kern
*staff1
=1-
*clefF4
*k[f#c#g#]
*M2/4
4r
8.r
16A\
=2
(4e\
16B\LK)
8.B\J
=3
*M3/4
4.B\
8B\
8B\
16r
16B\
=4
*M2/4
(4e\
8B\L)
16c#\L
16B\JJ
=5
*M3/4
(4B\
12B\L)
12c#\
12B\J
4A\
=6
16E\LK
8.E\J
4E\
4r
=7
*M2/4
8.A\L
16F#\Jk
16E\LK
8.E\J
=8
4E\
4r
=9
8E\L
8E\J
8E\L
8E\J
=10
8E\L
16E\Jk
16r
4r
=11
16e\LK
8.B\J
8B\L
16e\L
16c#\JJ
=12
*M3/4
16.c#\LL
32B\JK
8B\J
8B\
24e\LL
24c#\
24c#\JJ
4B\
=13
16.E\LL
32E\JK
8E\J
16.E\LL
32E\JK
8E\J
8E\
8r
=14
*M2/4
4A\
16F#\LL
16E\J
8E\J
=15
16F#\LL
16E\
16E\
16E\JJ
8E\
8r
=16
*M3/4
8.E\L
16E\Jk
8E\L
(16E\L
16D#\JJ)
8E\L
(16E\L
16D#\JJ)
==
*-
